src/images/icons/i.svg

<svg xmlns="http://www.w3.org/2000/svg" width="16" height="16" fill="none"><path fill="#8A8EA8" d="M7.2 4h1.6v1.6H7.2zm0 3.2h1.6V12H7.2zM8 0C3.584 0 0 3.584 0 8s3.584 8 8 8 8-3.584 8-8-3.584-8-8-8m0 14.4A6.41 6.41 0 0 1 1.6 8c0-3.528 2.872-6.4 6.4-6.4s6.4 2.872 6.4 6.4-2.872 6.4-6.4 6.4"/></svg>

<svg width="16" height="16" viewBox="0 0 16 16" fill="none" xmlns="http://www.w3.org/2000/svg">
<path d="M7.2 4H8.8V5.6H7.2V4ZM7.2 7.2H8.8V12H7.2V7.2ZM8 0C3.584 0 0 3.584 0 8C0 12.416 3.584 16 8 16C12.416 16 16 12.416 16 8C16 3.584 12.416 0 8 0ZM8 14.4C4.472 14.4 1.6 11.528 1.6 8C1.6 4.472 4.472 1.6 8 1.6C11.528 1.6 14.4 4.472 14.4 8C14.4 11.528 11.528 14.4 8 14.4Z" fill="#8A8EA8"/>
</svg>
